static/fa/svgs/solid/bug-slash.svg

<svg xmlns="http://www.w3.org/2000/svg" viewBox="0 0 640 512"><!--! Font Awesome Free 6.1.1 by @fontawesome - https://fontawesome.com License - https://fontawesome.com/license/free (Icons: CC BY 4.0, Fonts: SIL OFL 1.1, Code: MIT License) Copyright 2022 Fonticons, Inc.--><path d="M239.1 162.8c8.6-2.7 16.6-2.8 24.9-2.8h112c17.1 0 33.2 4.1 47.5 11.4.6-.7 1.2-1.4 1.9-2l64-64c12.5-12.52 32.7-12.52 45.2 0 12.5 12.5 12.5 32.7 0 45.2l-64 64c-1.5.7-1.3 1.3-2 1.9 6.1 12 10 25.4 11.1 39.5H544c17.7 0 32 14.3 32 32s-14.3 32-32 32h-64c0 9.9-.9 19.5-2.6 28.9l153.4 120.2c10.4 8.2 12.3 23.3 4.1 33.7-8.2 10.4-23.3 12.3-33.7 4.1L9.196 42.89C-1.236 34.71-3.065 19.63 5.112 9.196 13.29-1.236 28.37-3.065 38.81 5.112L239.1 162.8zM416 96v3.56c0 15.74-12.7 28.44-28.4 28.44H252.4c-15.7 0-28.4-12.7-28.4-28.44V96C224 42.98 266.1.001 320 .001c53 0 96 42.979 96 95.999zM160.3 256c.8-10.9 3-19.7 6.4-28.7L304 335.5v143.7c-34.5-3.4-65.8-17.8-90.3-39.6l-63.1 63c-12.5 12.5-32.7 12.5-45.2 0-12.52-12.5-12.52-32.7 0-45.2l64-64c1.8-1.9 3.9-3.5 6-4.8-9.9-20.8-15.4-44-15.4-68.6H96c-17.67 0-32-14.3-32-32s14.33-32 32-32h64.3zM336 479.2V360.7l94.8 74.7c-25.1 24.2-58.1 40.2-94.8 43.8z"/></svg>

<svg xmlns="http://www.w3.org/2000/svg" viewBox="0 0 640 512"><!--! Font Awesome Free 6.1.1 by @fontawesome - https://fontawesome.com License - https://fontawesome.com/license/free (Icons: CC BY 4.0, Fonts: SIL OFL 1.1, Code: MIT License) Copyright 2022 Fonticons, Inc. --><path d="M239.1 162.8C247.7 160.1 255.7 160 264 160H376C393.1 160 409.2 164.1 423.5 171.4C424.1 170.7 424.7 170 425.4 169.4L489.4 105.4C501.9 92.88 522.1 92.88 534.6 105.4C547.1 117.9 547.1 138.1 534.6 150.6L470.6 214.6C469.1 215.3 469.3 215.9 468.6 216.5C474.7 228.5 478.6 241.9 479.7 256H544C561.7 256 576 270.3 576 288C576 305.7 561.7 320 544 320H480C480 329.9 479.1 339.5 477.4 348.9L630.8 469.1C641.2 477.3 643.1 492.4 634.9 502.8C626.7 513.2 611.6 515.1 601.2 506.9L9.196 42.89C-1.236 34.71-3.065 19.63 5.112 9.196C13.29-1.236 28.37-3.065 38.81 5.112L239.1 162.8zM416 96V99.56C416 115.3 403.3 128 387.6 128H252.4C236.7 128 224 115.3 224 99.56V96C224 42.98 266.1 .001 320 .001C373 .001 416 42.98 416 96V96zM160.3 256C161.1 245.1 163.3 236.3 166.7 227.3L304 335.5V479.2C269.5 475.8 238.2 461.4 213.7 439.6L150.6 502.6C138.1 515.1 117.9 515.1 105.4 502.6C92.88 490.1 92.88 469.9 105.4 457.4L169.4 393.4C171.2 391.5 173.3 389.9 175.4 388.6C165.5 367.8 160 344.6 160 320H96C78.33 320 64 305.7 64 288C64 270.3 78.33 256 96 256H160.3zM336 479.2V360.7L430.8 435.4C405.7 459.6 372.7 475.6 336 479.2V479.2z"/></svg>
